assets/Man surfing/Default/Flat/man_surfing_flat_default.svg

<svg width="32" height="32" viewBox="0 0 32 32" fill="none" xmlns="http://www.w3.org/2000/svg">
<path d="M27.67 10.91C27.67 11.385 27.2849 11.77 26.8099 11.77C26.335 11.77 25.95 11.385 25.95 10.91C25.95 10.4351 26.335 10.05 26.8099 10.05C27.2849 10.05 27.67 10.4351 27.67 10.91Z" fill="#26C9FC"/>
<path d="M29.8101 12.9901C29.8101 13.5313 29.3713 13.9701 28.8301 13.9701C28.2889 13.9701 27.8501 13.5313 27.8501 12.9901C27.8501 12.4488 28.2889 12.0101 28.8301 12.0101C29.3713 12.0101 29.8101 12.4488 29.8101 12.9901Z" fill="#26C9FC"/>
<path d="M29.3439 24.5688C28.0459 27.7024 24.5312 30.0001 21.35 30.0001H4.92188C4.92188 30.0001 19.39 25.4201 22.9 18.9001C24.7 15.5601 30 16.8601 30 21.2601C30.0013 22.3954 29.7784 23.5199 29.3439 24.5688Z" fill="#26C9FC"/>
<path d="M25.8201 16.1801C26.5104 16.1801 27.0701 15.6204 27.0701 14.9301C27.0701 14.2397 26.5104 13.6801 25.8201 13.6801C25.1297 13.6801 24.5701 14.2397 24.5701 14.9301C24.5701 15.6204 25.1297 16.1801 25.8201 16.1801Z" fill="#26C9FC"/>
<path d="M7.92195 12.9531C10.7422 12.5547 12.1172 10.6953 12.9063 8.80469C13.9689 8.80469 13.7032 11.7422 12.9297 12.5547C12.3738 13.1387 10.6096 14.6566 8.18049 14.9589C7.5 14.5 7.50002 13.5 7.92195 12.9531Z" fill="#007ACF"/>
<path d="M17.8984 10.0078C19.2862 9.96087 20.125 10.4609 20.5234 11.0859C20.6993 11.3617 21.1016 12.0898 20.9141 13.0937C20.9141 13.0937 20.668 13.0312 20.5352 13.1328C20.4023 13.2343 20.2148 13.6406 20.2734 13.8906C20.332 14.1406 20.5703 14.0663 20.5703 14.1406C20.5703 14.2148 20.3553 14.551 20.5703 14.7031C20.7853 14.8552 20.8281 14.7851 20.9531 14.8359C21.0781 14.8867 21.0898 14.9843 21.2344 15.0156C21.3789 15.0468 21.4336 14.9843 21.5469 15.0156C21.6602 15.0468 21.6875 15.1288 21.8516 15.1328C22.0156 15.1367 22.0273 15.1054 22.1523 15.1054C22.2773 15.1054 22.2109 15.1796 22.4922 15.1796C22.7734 15.1796 22.9031 14.7713 22.9753 14.2356C23.0312 13.8211 23.0312 13.4861 23.0312 13.295C23.0312 12.8566 23.1404 12.7374 23.0312 11.9999C22.4989 8.40429 19.5639 7.78995 16.8201 7.78995C16.8201 7.78995 15.2401 7.70995 14.4601 7.78995C14.2043 7.81458 13.9561 7.89114 13.7309 8.01494C13.5056 8.13873 13.308 8.30717 13.1501 8.50995C12.1946 10.2448 12.7545 12.304 13.3501 14.0699C13.4447 14.3075 13.3524 14.5592 13.2578 14.7968L7.09375 27.8437L10.1172 26.7734L10.2109 25.7187L15.3438 18.0781C15.5938 17.7281 16.059 17.8622 16.1562 18.1249C16.7711 19.7863 18.4219 22.0546 19.8828 23.3437L21.6719 22.7187C20.7244 21.2726 18.9101 18.9218 18.9101 16.93V15.4799C18.9101 13.8856 18.1125 12.3393 17.5801 10.87C17.4901 10.51 17.2284 10.0978 17.8984 10.0078Z" fill="#0092E7"/>
<path d="M20.9141 13.0937C20.948 12.9125 20.9628 12.5781 20.9628 12.5781L23.0768 12.6889C23.0768 12.6889 23.0313 13.0475 23.0313 13.295C23.0313 13.4862 23.0313 13.8211 22.9754 14.2356C22.9031 14.7713 22.7735 15.1796 22.4922 15.1796C22.3235 15.1796 22.2799 15.1529 22.245 15.1315C22.2218 15.1173 22.2024 15.1054 22.1524 15.1054C22.096 15.1054 22.0626 15.1118 22.0279 15.1184C21.9858 15.1265 21.9416 15.1349 21.8516 15.1328C21.7515 15.1304 21.7023 15.0989 21.6534 15.0676C21.6222 15.0476 21.5911 15.0278 21.5469 15.0156C21.4917 15.0003 21.4504 15.0074 21.4058 15.015C21.359 15.023 21.3085 15.0316 21.2344 15.0156C21.1542 14.9982 21.1149 14.9605 21.0745 14.9216C21.042 14.8904 21.0088 14.8585 20.9532 14.8359C20.9089 14.8179 20.8749 14.8151 20.84 14.8122C20.7762 14.8069 20.7092 14.8013 20.5704 14.7031C20.4076 14.588 20.4912 14.3674 20.5415 14.2347C20.5577 14.1921 20.5704 14.1586 20.5704 14.1406C20.5704 14.1139 20.5396 14.1064 20.4974 14.0961C20.4223 14.0778 20.311 14.0507 20.2735 13.8906C20.2149 13.6406 20.4024 13.2343 20.5352 13.1328C20.668 13.0312 20.9141 13.0937 20.9141 13.0937Z" fill="#FFC83D"/>
<path d="M6.91744 12.8957C6.67846 12.8652 6.44806 12.8359 6.24222 12.8359C5.65625 12.8359 5.20326 13.1484 5.00004 13.4218C4.94041 13.502 4.97651 13.6288 4.97651 13.6288C4.83198 13.6979 4.56792 13.9257 4.66792 14.2851C4.66223 14.2632 4.34776 14.5859 4.53135 14.8749C4.6406 15.0312 4.78253 15.0468 4.83984 15.0351C4.83984 15.0351 4.84694 15.1413 5.00004 15.2695C5.08206 15.3307 5.34062 15.346 5.48438 15.1992C5.51365 15.1692 5.54199 15.1364 5.5713 15.1025C5.72194 14.9281 5.89832 14.7239 6.35938 14.7304C6.17578 14.8749 5.82031 15.1992 6.10156 15.5351C6.24222 15.7031 6.56719 15.6913 6.78906 15.5038L7.33203 15.0117C7.53997 15.0117 7.75076 14.9938 7.94961 14.977C8.03004 14.9702 8.10871 14.9636 8.18426 14.9584C7.92191 14.3984 7.76953 13.4023 7.92191 12.9531C7.59915 12.9826 7.24998 12.9381 6.91744 12.8957Z" fill="#FFC83D"/>
<path d="M19.8829 23.3437C19.5634 23.0618 18.9102 22.3743 18.9102 22.3743L20.8585 21.5109C20.8585 21.5109 21.4397 22.3642 21.6719 22.7187L19.8829 23.3437Z" fill="#FFC83D"/>
<path d="M8.35921 25.1652L7.09375 27.8437L10.1172 26.7734L10.2109 25.7187L8.35921 25.1652Z" fill="#FFC83D"/>
<path d="M23.0707 24.5469L25.5 23.71C25.7994 23.6009 26.0463 23.3824 26.1911 23.0985C26.3358 22.8146 26.3676 22.4864 26.28 22.18C26.2272 22.0231 26.1436 21.8782 26.0343 21.7538C25.925 21.6294 25.792 21.528 25.6432 21.4554C25.4943 21.3828 25.3325 21.3405 25.1672 21.331C25.0018 21.3215 24.8362 21.345 24.68 21.4L2.20003 29.14C2.09881 29.1715 2.01237 29.2386 1.95662 29.3287C1.90087 29.4189 1.87955 29.5262 1.89659 29.6308C1.91362 29.7354 1.96786 29.8304 2.04934 29.8982C2.13081 29.9661 2.23403 30.0022 2.34003 30H5.13003C6.58163 29.9957 8.02202 29.7455 9.39003 29.26L21.188 25.1955L22.92 26.04C22.9855 26.071 23.0586 26.0822 23.1302 26.0721C23.2019 26.0619 23.2691 26.031 23.3234 25.9831C23.3777 25.9352 23.4167 25.8724 23.4357 25.8025C23.4546 25.7327 23.4527 25.6588 23.43 25.59L23.0707 24.5469Z" fill="#D73B9A"/>
<path d="M16.26 3.51997L16.08 3.42997C15.9493 3.36395 15.831 3.27601 15.73 3.16997L15.37 2.81997C15.2397 2.69487 15.0779 2.60742 14.9018 2.56693C14.7257 2.52643 14.5419 2.53439 14.37 2.58997C14.1401 2.66998 13.8899 2.66998 13.66 2.58997C13.5076 2.51255 13.3345 2.48537 13.1657 2.51232C12.9968 2.53926 12.8408 2.61895 12.72 2.73997L12.28 3.16997C12.1791 3.27601 12.0607 3.36395 11.93 3.42997L11.75 3.51997C11.5857 3.59866 11.4522 3.72985 11.3708 3.89283C11.2893 4.0558 11.2644 4.24128 11.3 4.41997L11.54 5.75997C11.5547 5.82203 11.5888 5.87778 11.6374 5.91914C11.6859 5.9605 11.81 5.98997 11.81 5.98997L16.22 6.01997C16.22 6.01997 16.3428 5.99185 16.39 5.95012C16.4371 5.90839 16.4689 5.85196 16.48 5.78997L16.73 4.44997C16.7678 4.26468 16.742 4.07206 16.6567 3.90328C16.5714 3.73451 16.4316 3.59945 16.26 3.51997Z" fill="#F1A11E"/>
<path fill-rule="evenodd" clip-rule="evenodd" d="M16.22 5.4699V6.01997C16.2829 6.01646 16.3428 5.99185 16.39 5.95012C16.4371 5.90839 16.4689 5.85196 16.48 5.78997L16.5168 5.59272C16.7004 5.72321 16.8201 5.9376 16.8201 6.17996C16.8201 6.57761 16.4978 6.89996 16.1001 6.89996C15.7025 6.89996 15.3801 6.57761 15.3801 6.17996C15.3801 5.78232 15.7025 5.45996 16.1001 5.45996C16.141 5.45996 16.181 5.46336 16.22 5.4699ZM11.5072 5.57643L11.54 5.75997C11.5547 5.82203 11.5888 5.87778 11.6374 5.91914C11.6859 5.9605 11.7464 5.98531 11.81 5.98997V5.46552C11.8395 5.46185 11.8695 5.45996 11.8999 5.45996C12.2976 5.45996 12.6199 5.78232 12.6199 6.17996C12.6199 6.57761 12.2976 6.89996 11.8999 6.89996C11.5023 6.89996 11.1799 6.57761 11.1799 6.17996C11.1799 5.92723 11.3102 5.70491 11.5072 5.57643Z" fill="#FDBB11"/>
<path fill-rule="evenodd" clip-rule="evenodd" d="M11.7958 5.98863C11.8005 5.9892 11.8053 5.98966 11.81 5.99001V5.37001C11.7899 5.30673 11.7866 5.23926 11.8007 5.17434C11.8147 5.10942 11.8455 5.04931 11.89 5.00001H12C12.0542 4.95066 12.0974 4.89041 12.1267 4.82319C12.156 4.75598 12.1708 4.68333 12.17 4.61001V4.21001C12.1703 4.16517 12.1838 4.1214 12.2086 4.08409C12.2335 4.04678 12.2688 4.01756 12.31 4.00001C12.8631 3.86486 13.4306 3.7977 14 3.80001C14.5661 3.7972 15.1304 3.86438 15.68 4.00001C15.7303 4.01121 15.7754 4.03898 15.8081 4.07888C15.8407 4.11877 15.859 4.16847 15.86 4.22001V4.59001C15.8525 4.6644 15.8611 4.73953 15.8853 4.81029C15.9094 4.88104 15.9486 4.94575 16 5.00001L16.08 5.07001C16.1274 5.11034 16.1647 5.16116 16.1891 5.21845C16.2134 5.27574 16.224 5.33791 16.22 5.40001V5.75299L16.0901 7.71002C16.0624 8.06194 15.9027 8.39039 15.6431 8.62959C15.3835 8.8688 15.0431 9.00111 14.6901 9.00002H13.3101C12.9571 9.00111 12.6167 8.8688 12.3571 8.62959C12.0975 8.39039 11.9378 8.06194 11.9101 7.71002L11.7958 5.98863Z" fill="#FFC83D"/>
<path d="M14.0001 7.51001C13.7814 7.50885 13.5658 7.45753 13.3701 7.36001C13.3101 7.36001 13.2401 7.36001 13.2801 7.46001C13.3594 7.57965 13.4672 7.67779 13.5937 7.74568C13.7202 7.81357 13.8615 7.8491 14.0051 7.8491C14.1486 7.8491 14.29 7.81357 14.4165 7.74568C14.543 7.67779 14.6507 7.57965 14.7301 7.46001C14.7301 7.40001 14.7301 7.32001 14.6401 7.36001C14.4408 7.45768 14.222 7.50896 14.0001 7.51001V7.51001Z" fill="#990839"/>
<path d="M13.8399 6.05998L13.6099 6.78998C13.601 6.82579 13.6002 6.86313 13.6074 6.89931C13.6146 6.93549 13.6298 6.96963 13.6518 6.99926C13.6738 7.0289 13.702 7.05329 13.7346 7.07071C13.7671 7.08812 13.8031 7.09812 13.8399 7.09998H14.1699C14.2066 7.09853 14.2425 7.08867 14.2748 7.07118C14.307 7.05368 14.3349 7.02901 14.3561 6.99907C14.3774 6.96912 14.3915 6.9347 14.3973 6.89845C14.4032 6.8622 14.4007 6.8251 14.3899 6.78998L14.1699 6.05998C14.1608 6.02313 14.1396 5.9904 14.1097 5.96701C14.0798 5.94362 14.0429 5.93091 14.0049 5.93091C13.967 5.93091 13.9301 5.94362 13.9002 5.96701C13.8703 5.9904 13.8491 6.02313 13.8399 6.05998V6.05998Z" fill="#ED9200"/>
<path d="M15.0499 5.57994C15.188 5.5803 15.322 5.62672 15.4307 5.71186C15.5394 5.797 15.6165 5.91598 15.6499 6.04994C15.6528 6.0678 15.6518 6.08605 15.6472 6.10352C15.6426 6.121 15.6343 6.13731 15.623 6.15143C15.6117 6.16554 15.5976 6.17715 15.5816 6.1855C15.5656 6.19386 15.548 6.19877 15.5299 6.19994H14.5299C14.5155 6.19869 14.5014 6.19458 14.4885 6.18786C14.4756 6.18114 14.4642 6.17193 14.4549 6.16078C14.4456 6.14962 14.4386 6.13673 14.4344 6.12286C14.4301 6.10899 14.4286 6.0944 14.4299 6.07994C14.4581 5.93706 14.5357 5.80864 14.649 5.71722C14.7624 5.62579 14.9043 5.5772 15.0499 5.57994Z" fill="white"/>
<path d="M13.0001 5.57991C12.862 5.58026 12.728 5.62668 12.6193 5.71182C12.5106 5.79696 12.4335 5.91594 12.4001 6.04991C12.3954 6.06795 12.395 6.08684 12.3989 6.10507C12.4028 6.1233 12.4109 6.14037 12.4225 6.15493C12.4342 6.16949 12.4491 6.18113 12.466 6.18894C12.4829 6.19674 12.5014 6.2005 12.5201 6.1999H13.5201C13.5345 6.19865 13.5486 6.19454 13.5615 6.18782C13.5744 6.1811 13.5858 6.17189 13.5951 6.16074C13.6044 6.14958 13.6114 6.13669 13.6156 6.12282C13.6199 6.10895 13.6214 6.09436 13.6201 6.07991C13.5901 5.9379 13.5121 5.8106 13.3991 5.71949C13.2861 5.62839 13.1452 5.57909 13.0001 5.57991Z" fill="white"/>
<path d="M12.7707 5.81355C12.8454 5.74069 12.9456 5.69992 13.05 5.69995C13.1455 5.71197 13.2335 5.75802 13.2978 5.82966C13.3621 5.90129 13.3984 5.99371 13.4 6.08995C13.4047 6.12647 13.4047 6.16344 13.4 6.19995H12.65C12.6453 6.16344 12.6453 6.12647 12.65 6.08995C12.6526 5.98561 12.6959 5.88642 12.7707 5.81355Z" fill="#7D4533"/>
<path d="M15.2759 5.81418C15.2028 5.74104 15.1036 5.69995 15.0001 5.69995C14.901 5.70738 14.8082 5.75143 14.7398 5.82353C14.6714 5.89562 14.6323 5.9906 14.6301 6.08995V6.19995H15.3901C15.3951 6.16345 15.3951 6.12645 15.3901 6.08995C15.3901 5.98652 15.349 5.88732 15.2759 5.81418Z" fill="#7D4533"/>
<path d="M12.8201 6.19995C12.8199 6.04687 12.8438 5.88672 13.0313 5.88672C13.2188 5.88672 13.2701 6.05466 13.2701 6.19995H12.8201Z" fill="black"/>
<path d="M14.7869 6.19995C14.7867 6.04687 14.8106 5.88672 14.9981 5.88672C15.1856 5.88672 15.2369 6.05466 15.2369 6.19995H14.7869Z" fill="black"/>
<path d="M12.9801 5.94C12.9801 5.97866 12.9487 6.01 12.9101 6.01C12.8714 6.01 12.8401 5.97866 12.8401 5.94C12.8401 5.90134 12.8714 5.87 12.9101 5.87C12.9487 5.87 12.9801 5.90134 12.9801 5.94Z" fill="white"/>
<path d="M14.91 5.94C14.91 5.97866 14.8787 6.01 14.84 6.01C14.8014 6.01 14.77 5.97866 14.77 5.94C14.77 5.90134 14.8014 5.87 14.84 5.87C14.8787 5.87 14.91 5.90134 14.91 5.94Z" fill="white"/>
<path d="M12.5714 5.28267C12.7588 5.15224 12.9879 5.09576 13.2145 5.1241C13.283 5.13266 13.3455 5.08407 13.354 5.01557C13.3626 4.94707 13.314 4.88459 13.2455 4.87603C12.9577 4.84003 12.6667 4.91178 12.4286 5.07746C12.3719 5.11689 12.358 5.19479 12.3974 5.25146C12.4368 5.30812 12.5147 5.3221 12.5714 5.28267Z" fill="#D37034"/>
<path d="M15.5803 5.07667C15.3417 4.91433 15.0526 4.84306 14.7658 4.87584C14.6973 4.88367 14.648 4.94563 14.6558 5.01422C14.6637 5.08281 14.7256 5.13206 14.7942 5.12422C15.0215 5.09825 15.2506 5.15473 15.4397 5.28339C15.4968 5.32221 15.5746 5.30741 15.6134 5.25033C15.6522 5.19324 15.6374 5.11549 15.5803 5.07667Z" fill="#D37034"/>
</svg>

<svg xmlns="http://www.w3.org/2000/svg" width="32" height="32" fill="none"><path fill="#26C9FC" d="M27.67 10.91a.86.86 0 1 1-1.72 0 .86.86 0 0 1 1.72 0ZM29.81 12.99a.98.98 0 1 1-1.96 0 .98.98 0 0 1 1.96 0ZM29.344 24.569C28.046 27.702 24.53 30 21.35 30H4.922S19.39 25.42 22.9 18.9c1.8-3.34 7.1-2.04 7.1 2.36a8.62 8.62 0 0 1-.656 3.309ZM25.82 16.18a1.25 1.25 0 1 0 0-2.5 1.25 1.25 0 0 0 0 2.5Z"/><path fill="#007ACF" d="M7.922 12.953c2.82-.398 4.195-2.258 4.984-4.148 1.063 0 .797 2.937.024 3.75-.556.584-2.32 2.102-4.75 2.404-.68-.459-.68-1.459-.258-2.006Z"/><path fill="#0092E7" d="M17.898 10.008c1.388-.047 2.227.453 2.625 1.078a2.76 2.76 0 0 1 .391 2.008s-.246-.063-.379.039c-.133.101-.32.508-.262.758.059.25.297.175.297.25 0 .074-.215.41 0 .562.215.152.258.082.383.133.125.05.137.148.281.18.145.03.2-.032.313 0 .113.03.14.113.305.117.164.004.175-.028.3-.028s.059.075.34.075.411-.409.483-.944c.056-.415.056-.75.056-.941 0-.438.11-.558 0-1.295-.532-3.596-3.467-4.21-6.21-4.21 0 0-1.58-.08-2.36 0a1.89 1.89 0 0 0-1.31.72c-.956 1.735-.396 3.794.2 5.56.094.237.001.49-.093.727L7.094 27.844l3.023-1.07.094-1.055 5.133-7.64c.25-.35.715-.217.812.046.615 1.661 2.266 3.93 3.727 5.219l1.789-.625c-.948-1.446-2.762-3.797-2.762-5.789v-1.45c0-1.594-.797-3.14-1.33-4.61-.09-.36-.352-.772.318-.862Z"/><path fill="#FFC83D" d="M20.914 13.094c.034-.181.049-.516.049-.516l2.114.11s-.046.36-.046.607c0 .191 0 .526-.056.94-.072.536-.202.945-.483.945-.169 0-.212-.027-.247-.048-.023-.015-.043-.027-.093-.027-.056 0-.09.007-.124.013a.715.715 0 0 1-.176.015c-.1-.003-.15-.034-.199-.065a.37.37 0 0 0-.106-.052c-.055-.016-.097-.009-.141-.001a.405.405 0 0 1-.172 0 .301.301 0 0 1-.16-.093c-.032-.032-.065-.064-.12-.086-.045-.018-.08-.02-.114-.024-.064-.005-.13-.01-.27-.109-.162-.115-.079-.336-.029-.468a.374.374 0 0 0 .03-.094c0-.027-.031-.035-.074-.045-.075-.018-.186-.045-.224-.205-.058-.25.13-.657.262-.758.133-.102.38-.04.38-.04ZM6.917 12.896c-.239-.03-.469-.06-.675-.06-.586 0-1.039.312-1.242.586-.06.08-.023.207-.023.207-.145.069-.41.297-.31.656-.005-.022-.32.3-.136.59.11.156.252.172.309.16 0 0 .007.106.16.235.082.06.34.076.484-.07.03-.03.058-.064.087-.098.15-.174.327-.378.788-.372-.183.145-.539.47-.257.805.14.168.465.156.687-.031l.543-.492c.208 0 .419-.018.618-.035l.234-.019c-.262-.56-.414-1.556-.262-2.005-.323.03-.672-.015-1.005-.057ZM19.883 23.344c-.32-.282-.973-.97-.973-.97l1.948-.863s.582.853.814 1.208l-1.79.625ZM8.36 25.165l-1.266 2.679 3.023-1.07.094-1.055-1.852-.554Z"/><path fill="#D73B9A" d="m23.07 24.547 2.43-.837a1.26 1.26 0 0 0 .78-1.53 1.25 1.25 0 0 0-1.6-.78L2.2 29.14a.44.44 0 0 0 .14.86h2.79a12.85 12.85 0 0 0 4.26-.74l11.798-4.065 1.732.845a.37.37 0 0 0 .51-.45l-.36-1.043Z"/><path fill="#F1A11E" d="m16.26 3.52-.18-.09a1.28 1.28 0 0 1-.35-.26l-.36-.35a1 1 0 0 0-1-.23c-.23.08-.48.08-.71 0a.81.81 0 0 0-.94.15l-.44.43c-.1.106-.22.194-.35.26l-.18.09a.82.82 0 0 0-.45.9l.24 1.34a.3.3 0 0 0 .097.16c.049.04.173.07.173.07l4.41.03s.123-.028.17-.07a.28.28 0 0 0 .09-.16l.25-1.34a.84.84 0 0 0-.47-.93Z"/><path fill="#FDBB11" fill-rule="evenodd" d="M16.22 5.47v.55a.28.28 0 0 0 .26-.23l.037-.197a.719.719 0 1 1-.297-.123Zm-4.713.106.033.184a.3.3 0 0 0 .27.23v-.524a.72.72 0 1 1-.303.11Z" clip-rule="evenodd"/><path fill="#FFC83D" fill-rule="evenodd" d="M11.796 5.989a.31.31 0 0 0 .014.001v-.62a.38.38 0 0 1 .08-.37H12a.52.52 0 0 0 .17-.39v-.4a.23.23 0 0 1 .14-.21A7 7 0 0 1 14 3.8a6.87 6.87 0 0 1 1.68.2.23.23 0 0 1 .18.22v.37A.52.52 0 0 0 16 5l.08.07a.401.401 0 0 1 .14.33v.353l-.13 1.957A1.4 1.4 0 0 1 14.69 9h-1.38a1.4 1.4 0 0 1-1.4-1.29l-.114-1.721Z" clip-rule="evenodd"/><path fill="#990839" d="M14 7.51a1.43 1.43 0 0 1-.63-.15c-.06 0-.13 0-.09.1a.87.87 0 0 0 1.45 0c0-.06 0-.14-.09-.1a1.47 1.47 0 0 1-.64.15Z"/><path fill="#ED9200" d="m13.84 6.06-.23.73a.25.25 0 0 0 .23.31h.33a.24.24 0 0 0 .22-.31l-.22-.73a.17.17 0 0 0-.33 0Z"/><path fill="#fff" d="M15.05 5.58a.62.62 0 0 1 .6.47.13.13 0 0 1-.12.15h-1a.11.11 0 0 1-.1-.12.62.62 0 0 1 .62-.5ZM13 5.58a.62.62 0 0 0-.6.47.12.12 0 0 0 .12.15h1a.11.11 0 0 0 .1-.12.63.63 0 0 0-.62-.5Z"/><path fill="#7D4533" d="M12.77 5.814a.4.4 0 0 1 .28-.114.4.4 0 0 1 .35.39.43.43 0 0 1 0 .11h-.75a.43.43 0 0 1 0-.11.4.4 0 0 1 .12-.276ZM15.276 5.814A.39.39 0 0 0 15 5.7a.4.4 0 0 0-.37.39v.11h.76a.405.405 0 0 0 0-.11.39.39 0 0 0-.114-.276Z"/><path fill="#000" d="M12.82 6.2c0-.153.024-.313.211-.313.188 0 .24.168.24.313h-.45ZM14.787 6.2c0-.153.024-.313.211-.313.188 0 .239.168.239.313h-.45Z"/><path fill="#fff" d="M12.98 5.94a.07.07 0 1 1-.14 0 .07.07 0 0 1 .14 0ZM14.91 5.94a.07.07 0 1 1-.14 0 .07.07 0 0 1 .14 0Z"/><path fill="#D37034" d="M12.571 5.283a.925.925 0 0 1 .643-.159.125.125 0 1 0 .031-.248 1.175 1.175 0 0 0-.816.201.125.125 0 1 0 .142.206ZM15.58 5.077a1.205 1.205 0 0 0-.814-.201.125.125 0 0 0 .028.248.955.955 0 0 1 .646.16.125.125 0 0 0 .14-.207Z"/></svg>
